images/pages/set_currency/usd.svg

<?xml version="1.0" encoding="UTF-8"?>
<svg width="28px" height="20px" viewBox="0 0 28 20" version="1.1" xmlns="http://www.w3.org/2000/svg" xmlns:xlink="http://www.w3.org/1999/xlink">
    <!-- Generator: Sketch 44.1 (41455) - http://www.bohemiancoding.com/sketch -->
    <title>currency/ic-usd</title>
    <desc>Created with Sketch.</desc>
    <defs>
        <rect id="path-1" x="0" y="0" width="28" height="20" rx="2"></rect>
        <linearGradient x1="50%" y1="0%" x2="50%" y2="100%" id="linearGradient-3">
            <stop stop-color="#FFFFFF" offset="0%"></stop>
            <stop stop-color="#F0F0F0" offset="100%"></stop>
        </linearGradient>
        <path d="M2,2.66666667 C1.63181017,2.66666667 1.33333333,2.36818983 1.33333333,2 C1.33333333,1.63181017 1.63181017,1.33333333 2,1.33333333 C2.36818983,1.33333333 2.66666667,1.63181017 2.66666667,2 C2.66666667,2.36818983 2.36818983,2.66666667 2,2.66666667 Z M4.66666667,2.66666667 C4.29847683,2.66666667 4,2.36818983 4,2 C4,1.63181017 4.29847683,1.33333333 4.66666667,1.33333333 C5.0348565,1.33333333 5.33333333,1.63181017 5.33333333,2 C5.33333333,2.36818983 5.0348565,2.66666667 4.66666667,2.66666667 Z M7.33333333,2.66666667 C6.9651435,2.66666667 6.66666667,2.36818983 6.66666667,2 C6.66666667,1.63181017 6.9651435,1.33333333 7.33333333,1.33333333 C7.70152317,1.33333333 8,1.63181017 8,2 C8,2.36818983 7.70152317,2.66666667 7.33333333,2.66666667 Z M10,2.66666667 C9.63181017,2.66666667 9.33333333,2.36818983 9.33333333,2 C9.33333333,1.63181017 9.63181017,1.33333333 10,1.33333333 C10.3681898,1.33333333 10.6666667,1.63181017 10.6666667,2 C10.6666667,2.36818983 10.3681898,2.66666667 10,2.66666667 Z M3.33333333,4 C2.9651435,4 2.66666667,3.70152317 2.66666667,3.33333333 C2.66666667,2.9651435 2.9651435,2.66666667 3.33333333,2.66666667 C3.70152317,2.66666667 4,2.9651435 4,3.33333333 C4,3.70152317 3.70152317,4 3.33333333,4 Z M6,4 C5.63181017,4 5.33333333,3.70152317 5.33333333,3.33333333 C5.33333333,2.9651435 5.63181017,2.66666667 6,2.66666667 C6.36818983,2.66666667 6.66666667,2.9651435 6.66666667,3.33333333 C6.66666667,3.70152317 6.36818983,4 6,4 Z M8.66666667,4 C8.29847683,4 8,3.70152317 8,3.33333333 C8,2.9651435 8.29847683,2.66666667 8.66666667,2.66666667 C9.0348565,2.66666667 9.33333333,2.9651435 9.33333333,3.33333333 C9.33333333,3.70152317 9.0348565,4 8.66666667,4 Z M10,5.33333333 C9.63181017,5.33333333 9.33333333,5.0348565 9.33333333,4.66666667 C9.33333333,4.29847683 9.63181017,4 10,4 C10.3681898,4 10.6666667,4.29847683 10.6666667,4.66666667 C10.6666667,5.0348565 10.3681898,5.33333333 10,5.33333333 Z M7.33333333,5.33333333 C6.9651435,5.33333333 6.66666667,5.0348565 6.66666667,4.66666667 C6.66666667,4.29847683 6.9651435,4 7.33333333,4 C7.70152317,4 8,4.29847683 8,4.66666667 C8,5.0348565 7.70152317,5.33333333 7.33333333,5.33333333 Z M4.66666667,5.33333333 C4.29847683,5.33333333 4,5.0348565 4,4.66666667 C4,4.29847683 4.29847683,4 4.66666667,4 C5.0348565,4 5.33333333,4.29847683 5.33333333,4.66666667 C5.33333333,5.0348565 5.0348565,5.33333333 4.66666667,5.33333333 Z M2,5.33333333 C1.63181017,5.33333333 1.33333333,5.0348565 1.33333333,4.66666667 C1.33333333,4.29847683 1.63181017,4 2,4 C2.36818983,4 2.66666667,4.29847683 2.66666667,4.66666667 C2.66666667,5.0348565 2.36818983,5.33333333 2,5.33333333 Z M3.33333333,6.66666667 C2.9651435,6.66666667 2.66666667,6.36818983 2.66666667,6 C2.66666667,5.63181017 2.9651435,5.33333333 3.33333333,5.33333333 C3.70152317,5.33333333 4,5.63181017 4,6 C4,6.36818983 3.70152317,6.66666667 3.33333333,6.66666667 Z M6,6.66666667 C5.63181017,6.66666667 5.33333333,6.36818983 5.33333333,6 C5.33333333,5.63181017 5.63181017,5.33333333 6,5.33333333 C6.36818983,5.33333333 6.66666667,5.63181017 6.66666667,6 C6.66666667,6.36818983 6.36818983,6.66666667 6,6.66666667 Z M8.66666667,6.66666667 C8.29847683,6.66666667 8,6.36818983 8,6 C8,5.63181017 8.29847683,5.33333333 8.66666667,5.33333333 C9.0348565,5.33333333 9.33333333,5.63181017 9.33333333,6 C9.33333333,6.36818983 9.0348565,6.66666667 8.66666667,6.66666667 Z M10,8 C9.63181017,8 9.33333333,7.70152317 9.33333333,7.33333333 C9.33333333,6.9651435 9.63181017,6.66666667 10,6.66666667 C10.3681898,6.66666667 10.6666667,6.9651435 10.6666667,7.33333333 C10.6666667,7.70152317 10.3681898,8 10,8 Z M7.33333333,8 C6.9651435,8 6.66666667,7.70152317 6.66666667,7.33333333 C6.66666667,6.9651435 6.9651435,6.66666667 7.33333333,6.66666667 C7.70152317,6.66666667 8,6.9651435 8,7.33333333 C8,7.70152317 7.70152317,8 7.33333333,8 Z M4.66666667,8 C4.29847683,8 4,7.70152317 4,7.33333333 C4,6.9651435 4.29847683,6.66666667 4.66666667,6.66666667 C5.0348565,6.66666667 5.33333333,6.9651435 5.33333333,7.33333333 C5.33333333,7.70152317 5.0348565,8 4.66666667,8 Z M2,8 C1.63181017,8 1.33333333,7.70152317 1.33333333,7.33333333 C1.33333333,6.9651435 1.63181017,6.66666667 2,6.66666667 C2.36818983,6.66666667 2.66666667,6.9651435 2.66666667,7.33333333 C2.66666667,7.70152317 2.36818983,8 2,8 Z" id="path-4"></path>
        <filter x="-5.4%" y="-7.5%" width="110.7%" height="130.0%" filterUnits="objectBoundingBox" id="filter-5">
            <feOffset dx="0" dy="1" in="SourceAlpha" result="shadowOffsetOuter1"></feOffset>
            <feColorMatrix values="0 0 0 0 0   0 0 0 0 0   0 0 0 0 0  0 0 0 0.06 0" type="matrix" in="shadowOffsetOuter1"></feColorMatrix>
        </filter>
    </defs>
    <g id="Flows-to-create-CR" stroke="none" stroke-width="1" fill="none" fill-rule="evenodd">
        <g id="4-Choose-Currency-(Combine-Version)" transform="translate(-448.000000, -431.000000)">
            <g id="Group-10" transform="translate(305.000000, 138.000000)">
                <g id="Group-8" transform="translate(97.000000, 241.000000)">
                    <g id="Group-6-Copy" transform="translate(0.000000, 37.000000)">
                        <g id="Group-16-Copy">
                            <g id="Group-4">
                                <g id="Group">
                                    <g id="Group-15">
                                        <g id="currency/ic-usd" transform="translate(46.000000, 15.000000)">
                                            <mask id="mask-2" fill="white">
                                                <use xlink:href="#path-1"></use>
                                            </mask>
                                            <use id="Mask" fill="#FFFFFF" xlink:href="#path-1"></use>
                                            <path d="M0,0 L28,0 L28,1.33333333 L0,1.33333333 L0,0 Z M0,2.66666667 L28,2.66666667 L28,4 L0,4 L0,2.66666667 Z M0,5.33333333 L28,5.33333333 L28,6.66666667 L0,6.66666667 L0,5.33333333 Z M0,8 L28,8 L28,9.33333333 L0,9.33333333 L0,8 Z M0,10.6666667 L28,10.6666667 L28,12 L0,12 L0,10.6666667 Z M0,13.3333333 L28,13.3333333 L28,14.6666667 L0,14.6666667 L0,13.3333333 Z M0,16 L28,16 L28,17.3333333 L0,17.3333333 L0,16 Z M0,18.6666667 L28,18.6666667 L28,20 L0,20 L0,18.6666667 Z" id="Rectangle-511" fill="#D02F44" mask="url(#mask-2)"></path>
                                            <rect id="Rectangle-511" fill="#46467F" mask="url(#mask-2)" x="0" y="0" width="12" height="9.33333333"></rect>
                                            <g id="Oval-43" mask="url(#mask-2)">
                                                <use fill="black" fill-opacity="1" filter="url(#filter-5)" xlink:href="#path-4"></use>
                                                <use fill="url(#linearGradient-3)" fill-rule="evenodd" xlink:href="#path-4"></use>
                                            </g>
                                        </g>
                                    </g>
                                </g>
                            </g>
                        </g>
                    </g>
                </g>
            </g>
        </g>
    </g>
</svg>

<svg width="28" height="20" viewBox="0 0 28 20" xmlns="http://www.w3.org/2000/svg" xmlns:xlink="http://www.w3.org/1999/xlink"><title>currency/ic-usd</title><defs><rect id="a" width="28" height="20" rx="2"/><linearGradient x1="50%" y1="0%" x2="50%" y2="100%" id="e"><stop stop-color="#FFF" offset="0%"/><stop stop-color="#F0F0F0" offset="100%"/></linearGradient><path d="M2 2.667a.667.667 0 1 1 0-1.334.667.667 0 0 1 0 1.334zm2.667 0a.667.667 0 1 1 0-1.334.667.667 0 0 1 0 1.334zm2.666 0a.667.667 0 1 1 0-1.334.667.667 0 0 1 0 1.334zm2.667 0a.667.667 0 1 1 0-1.334.667.667 0 0 1 0 1.334zM3.333 4a.667.667 0 1 1 0-1.333.667.667 0 0 1 0 1.333zM6 4a.667.667 0 1 1 0-1.333A.667.667 0 0 1 6 4zm2.667 0a.667.667 0 1 1 0-1.333.667.667 0 0 1 0 1.333zM10 5.333A.667.667 0 1 1 10 4a.667.667 0 0 1 0 1.333zm-2.667 0a.667.667 0 1 1 0-1.333.667.667 0 0 1 0 1.333zm-2.666 0a.667.667 0 1 1 0-1.333.667.667 0 0 1 0 1.333zM2 5.333A.667.667 0 1 1 2 4a.667.667 0 0 1 0 1.333zm1.333 1.334a.667.667 0 1 1 0-1.334.667.667 0 0 1 0 1.334zm2.667 0a.667.667 0 1 1 0-1.334.667.667 0 0 1 0 1.334zm2.667 0a.667.667 0 1 1 0-1.334.667.667 0 0 1 0 1.334zM10 8a.667.667 0 1 1 0-1.333A.667.667 0 0 1 10 8zM7.333 8a.667.667 0 1 1 0-1.333.667.667 0 0 1 0 1.333zM4.667 8a.667.667 0 1 1 0-1.333.667.667 0 0 1 0 1.333zM2 8a.667.667 0 1 1 0-1.333A.667.667 0 0 1 2 8z" id="d"/><filter x="-5.4%" y="-7.5%" width="110.7%" height="130%" filterUnits="objectBoundingBox" id="c"><feOffset dy="1" in="SourceAlpha" result="shadowOffsetOuter1"/><feColorMatrix values="0 0 0 0 0 0 0 0 0 0 0 0 0 0 0 0 0 0 0.06 0" in="shadowOffsetOuter1"/></filter></defs><g fill="none" fill-rule="evenodd"><mask id="b" fill="#fff"><use xlink:href="#a"/></mask><use fill="#FFF" xlink:href="#a"/><path d="M0 0h28v1.333H0V0zm0 2.667h28V4H0V2.667zm0 2.666h28v1.334H0V5.333zM0 8h28v1.333H0V8zm0 2.667h28V12H0v-1.333zm0 2.666h28v1.334H0v-1.334zM0 16h28v1.333H0V16zm0 2.667h28V20H0v-1.333z" fill="#D02F44" mask="url(#b)"/><path fill="#46467F" mask="url(#b)" d="M0 0h12v9.333H0z"/><g mask="url(#b)"><use fill="#000" filter="url(#c)" xlink:href="#d"/><use fill="url(#e)" xlink:href="#d"/></g></g></svg>
